X:6865
T:The Guraguag
O:england
S:Alexander Mackay, A collection of Reels...
B:NLS Glen.344
N:Mc16 in Gore's Scottish Fiddle Music Index
N:Gore guesses 1802, a note (by Murdoch Henderson?)
N:on the titlepage says there's an 1832 watermark.
M:C|
L:1/8
K:A Dorian
B|dedB A/A/A e2|dcBA G2GB|d2Bg A/A/A e2|dBgB A2A:|
f|gaba gfeg    |dGBA G2ef|gaba gfeg    |dBgB A2ef|
gabg afge    |dcBA G2Gg|afge fdeg    |dBgB A2A|]


